src/ui/assets/img/transactions/t-closeorder-48.svg

<?xml version="1.0" encoding="UTF-8"?>
<svg width="48px" height="48px" viewBox="0 0 48 48" version="1.1" xmlns="http://www.w3.org/2000/svg" xmlns:xlink="http://www.w3.org/1999/xlink">
    <!-- Generator: Sketch 52.1 (67048) - http://www.bohemiancoding.com/sketch -->
    <title>Icon/t-closeorder-48</title>
    <desc>Created with Sketch.</desc>
    <g id="Icon/t-closeorder-48" stroke="none" stroke-width="1" fill="none" fill-rule="evenodd">
        <rect id="fon-fon-fon" fill="#D8D8D8" fill-rule="nonzero" opacity="0" x="0" y="0" width="48" height="48"></rect>
        <path d="M24,0 L24,0 C37.254834,-2.4348735e-15 48,10.745166 48,24 L48,24 C48,37.254834 37.254834,48 24,48 L24,48 C10.745166,48 1.623249e-15,37.254834 0,24 L0,24 C-1.623249e-15,10.745166 10.745166,2.4348735e-15 24,0 Z" id="krug" fill-opacity="0.1" fill="#EF4829"></path>
        <g id="Icon/80/error-80-ordercancel" transform="translate(9.000000, 9.000000)">
            <rect id="ico-zone" fill-opacity="0" fill="#D8D8D8" x="0" y="0" width="30" height="30"></rect>
            <path d="M28.9897711,20.4228518 C29.6285007,21.3964536 30,22.5610926 30,23.8125 C30,27.2297619 27.2297619,30 23.8125,30 C22.5610926,30 21.3964536,29.6285007 20.4228518,28.9897711 C18.741021,29.6421536 16.9123003,30 15,30 C6.71572875,30 1.76621153e-13,23.2842712 1.77635684e-13,15 C1.78650215e-13,6.71572875 6.71572875,-5.02452568e-14 15,-4.97379915e-14 C18.9782473,-4.94943941e-14 22.793556,1.58035261 25.6066017,4.39339828 C28.4196474,7.20644396 30,11.0217527 30,15 C30,16.9123003 29.6421536,18.741021 28.9897711,20.4228518 Z M28.0967099,19.3481072 C28.5513869,17.9811572 28.7982986,16.5193064 28.8,15 C28.8,7.37847045 22.6215295,1.2 15,1.2 C7.37847045,1.2 1.2,7.37847045 1.2,15 C1.2,22.6215295 7.37847045,28.8 15,28.8 C16.5193064,28.7982986 17.9811572,28.5513869 19.3481072,28.0967099 C18.2809072,26.9849114 17.625,25.4753034 17.625,23.8125 C17.625,20.3952381 20.3952381,17.625 23.8125,17.625 C25.4753034,17.625 26.9849114,18.2809072 28.0967099,19.3481072 Z M23.8125,28.875 C26.6084415,28.875 28.875,26.6084415 28.875,23.8125 C28.875,21.0165585 26.6084415,18.75 23.8125,18.75 C21.0165585,18.75 18.75,21.0165585 18.75,23.8125 C18.75,26.6084415 21.0165585,28.875 23.8125,28.875 Z" id="krugi" fill="#EF4829"></path>
            <path d="M23.8137378,23.0182427 L25.4047281,21.4272524 C25.624398,21.2075825 25.9805533,21.2075825 26.2002232,21.4272524 C26.4198931,21.6469223 26.4198931,22.0030777 26.2002232,22.2227476 L24.609233,23.8137378 L26.2002232,25.4047281 C26.4198931,25.624398 26.4198931,25.9805533 26.2002232,26.2002232 C25.9805533,26.4198931 25.624398,26.4198931 25.4047281,26.2002232 L23.8137378,24.609233 L22.2227476,26.2002232 C22.0030777,26.4198931 21.6469223,26.4198931 21.4272524,26.2002232 C21.2075825,25.9805533 21.2075825,25.624398 21.4272524,25.4047281 L23.0182427,23.8137378 L21.4272524,22.2227476 C21.2075825,22.0030777 21.2075825,21.6469223 21.4272524,21.4272524 C21.6469223,21.2075825 22.0030777,21.2075825 22.2227476,21.4272524 L23.8137378,23.0182427 Z" id="krestk" fill="#EF4829"></path>
            <path d="M19.2,18.5926272 C19.2,18.9239981 18.9313708,19.1926272 18.6,19.1926272 L6.8484,19.1926272 L9.4242,21.7684272 C9.58017395,21.9190719 9.64272756,22.1421539 9.58781829,22.3519316 C9.53290903,22.5617093 9.36908205,22.7255362 9.15930439,22.7804455 C8.94952674,22.8353548 8.72644468,22.7728012 8.5758,22.6168272 L4.9758,19.0168272 C4.74157084,18.7825273 4.74157084,18.4027271 4.9758,18.1684272 L8.5758,14.5684272 C8.81122733,14.3410439 9.18545087,14.3442958 9.41689115,14.5757361 C9.64833142,14.8071763 9.65158333,15.1813999 9.4242,15.4168272 L6.8484,17.9926272 L18.6,17.9926272 C18.9313708,17.9926272 19.2,18.2612564 19.2,18.5926272 Z M25.2,11.3926272 C25.2001777,11.5517862 25.136909,11.7044516 25.0242,11.8168272 L21.4242,15.4168272 C21.1887727,15.6442105 20.8145491,15.6409586 20.5831089,15.4095184 C20.3516686,15.1780781 20.3484167,14.8038545 20.5758,14.5684272 L23.1516,11.9926272 L11.4,11.9926272 C11.0686292,11.9926272 10.8,11.7239981 10.8,11.3926272 C10.8,11.0612564 11.0686292,10.7926272 11.4,10.7926272 L23.1516,10.7926272 L20.5758,8.21682721 C20.3484167,7.98139988 20.3516686,7.60717635 20.5831089,7.37573607 C20.8145491,7.14429579 21.1887727,7.14104389 21.4242,7.36842721 L25.0242,10.9684272 C25.136909,11.0808029 25.2001777,11.2334683 25.2,11.3926272 Z" id="strelochki" fill="#EF4829"></path>
        </g>
    </g>
</svg>

<?xml version="1.0" encoding="utf-8"?>
<!-- Generator: Adobe Illustrator 16.0.0, SVG Export Plug-In . SVG Version: 6.00 Build 0)  -->
<!DOCTYPE svg PUBLIC "-//W3C//DTD SVG 1.1//EN" "http://www.w3.org/Graphics/SVG/1.1/DTD/svg11.dtd">
<svg version="1.1" id="Layer_1" xmlns="http://www.w3.org/2000/svg" xmlns:xlink="http://www.w3.org/1999/xlink" x="0px" y="0px"
	 width="48px" height="48px" viewBox="0 0 48 48" enable-background="new 0 0 48 48" xml:space="preserve">
<title>Icon/t-closeorder-48</title>
<desc>Created with Sketch.</desc>
<g id="Icon_x2F_t-closeorder-48">
	<rect id="fon-fon-fon" fill="#D8D8D8" fill-opacity="0" width="48" height="48"/>
	<path id="krug" opacity="0.1" fill="#03A615" d="M24,0L24,0c13.255,0,24,10.745,24,24l0,0c0,13.255-10.745,24-24,24l0,0
		C10.745,48,0,37.255,0,24l0,0C0,10.745,10.745,0,24,0z"/>
	<g id="Icon_x2F_80_x2F_error-80-ordercancel" transform="translate(9.000000, 9.000000)">
		<rect id="ico-zone" fill="#03A615" fill-opacity="0" width="30" height="30"/>
		<path id="krugi" fill="#03A615" d="M28.99,20.423c0.639,0.974,1.01,2.138,1.01,3.39C30,27.229,27.23,30,23.813,30
			c-1.252,0-2.416-0.371-3.39-1.01C18.741,29.643,16.912,30,15,30C6.716,30,0,23.284,0,15S6.716,0,15,0
			c3.979,0,7.793,1.58,10.606,4.394C28.42,7.207,30,11.021,30,15C30,16.912,29.643,18.741,28.99,20.423z M28.097,19.348
			C28.551,17.98,28.799,16.52,28.8,15c0-7.622-6.179-13.8-13.8-13.8C7.378,1.2,1.2,7.378,1.2,15c0,7.621,6.178,13.8,13.8,13.8
			c1.52-0.001,2.98-0.249,4.348-0.703c-1.066-1.112-1.723-2.622-1.723-4.284c0-3.417,2.77-6.188,6.188-6.188
			C25.475,17.625,26.984,18.281,28.097,19.348z M23.813,28.875c2.796,0,5.063-2.267,5.063-5.063s-2.267-5.063-5.063-5.063
			s-5.063,2.267-5.063,5.063S21.017,28.875,23.813,28.875z"/>
		<path id="krestk" fill="#03A615" d="M23.814,23.018l1.59-1.59c0.221-0.221,0.576-0.221,0.796,0c0.22,0.219,0.22,0.575,0,0.795
			l-1.591,1.591l1.591,1.591c0.22,0.221,0.22,0.576,0,0.796s-0.575,0.22-0.796,0l-1.59-1.591L22.223,26.2
			c-0.22,0.22-0.576,0.22-0.795,0c-0.221-0.22-0.221-0.575,0-0.796l1.59-1.591l-1.59-1.591c-0.221-0.22-0.221-0.576,0-0.795
			c0.219-0.221,0.575-0.221,0.795,0L23.814,23.018z"/>
		<path id="strelochki" fill="#03A615" d="M19.2,18.593c0,0.331-0.269,0.6-0.601,0.6H6.849l2.576,2.576
			c0.156,0.15,0.218,0.374,0.164,0.583c-0.055,0.21-0.219,0.374-0.429,0.429c-0.209,0.056-0.433-0.007-0.583-0.163l-3.6-3.601
			c-0.234-0.233-0.234-0.614,0-0.849l3.6-3.6c0.235-0.228,0.61-0.224,0.841,0.007s0.234,0.606,0.007,0.841l-2.576,2.575H18.6
			C18.932,17.992,19.2,18.262,19.2,18.593z M25.2,11.393c0,0.159-0.063,0.312-0.176,0.424l-3.601,3.6
			c-0.234,0.228-0.609,0.224-0.841-0.007c-0.231-0.231-0.234-0.606-0.007-0.841l2.575-2.576H11.4c-0.331,0-0.6-0.269-0.6-0.6
			c0-0.331,0.269-0.6,0.6-0.6h11.751l-2.575-2.576c-0.228-0.235-0.225-0.609,0.007-0.841s0.606-0.235,0.841-0.008l3.601,3.6
			C25.137,11.081,25.2,11.233,25.2,11.393z"/>
	</g>
</g>
</svg>
